img/page/popular/04.svg

<svg width="64" height="64" viewBox="0 0 64 64" fill="none" xmlns="http://www.w3.org/2000/svg">
<g opacity="0.78">
<path fill-rule="evenodd" clip-rule="evenodd" d="M11.432 58.4356L4.55327 49.8663C2.89826 47.8045 2 45.2692 2 42.6597V11.63C2 7.72128 5.12717 4.47794 9.16143 4.2025L41.0643 2.02437C43.382 1.86612 45.6856 2.48218 47.5895 3.76941L58.7985 11.3478C60.8049 12.7044 62 14.922 62 17.2885V52.5663C62 56.3915 58.9251 59.5586 54.9752 59.8017L19.5667 61.9813C16.4147 62.1754 13.368 60.8474 11.432 58.4356Z" fill="white"/>
<path d="M22.4963 27.1574V26.7512C22.4963 25.7214 23.3211 24.8673 24.384 24.7964L32.1267 24.2794L42.8342 40.047V26.2083L40.0781 25.8409V25.6479C40.0781 24.6061 40.9218 23.7464 41.9983 23.6912L49.0433 23.3303V24.3442C49.0433 24.8201 48.6894 25.2272 48.2043 25.3092L46.509 25.596V48.0074L44.3813 48.7391C42.6038 49.3504 40.6249 48.696 39.6073 47.1605L29.2122 31.4744V46.4459L32.4118 47.0583L32.3672 47.355C32.2276 48.2847 31.425 48.9877 30.4541 49.0309L22.4963 49.3851C22.3911 48.3855 23.1403 47.4911 24.1739 47.3825L25.2207 47.2726V27.3105L22.4963 27.1574Z" fill="black"/>
<path fill-rule="evenodd" clip-rule="evenodd" d="M41.3499 5.93356L9.44706 8.1117C7.5361 8.24217 6.05481 9.77849 6.05481 11.63V42.6598C6.05481 44.3994 6.65365 46.0896 7.75699 47.4641L14.6357 56.0334C15.7479 57.4189 17.4981 58.1818 19.3088 58.0703L54.7174 55.8907C56.5322 55.779 57.945 54.3239 57.945 52.5663V17.2885C57.945 16.2012 57.3959 15.1823 56.474 14.559L45.265 6.98059C44.1227 6.20825 42.7405 5.83862 41.3499 5.93356ZM11.0291 12.114C10.5853 11.7855 10.7965 11.1011 11.3539 11.0611L41.5645 8.89422C42.5271 8.82518 43.4835 9.09024 44.262 9.64176L50.3235 13.9363C50.5536 14.0993 50.4457 14.4513 50.1608 14.4668L18.1679 16.2067C17.1997 16.2594 16.244 15.9749 15.4741 15.405L11.0291 12.114ZM16.6673 21.6614C16.6673 20.6221 17.5069 19.7635 18.5807 19.7051L52.4062 17.8629C53.4527 17.8059 54.3336 18.6107 54.3336 19.6236V50.1705C54.3336 51.208 53.4969 52.0656 52.4253 52.1266L18.8139 54.0391C17.6493 54.1053 16.6673 53.2104 16.6673 52.083V21.6614Z" fill="black"/>
</g>
</svg>

<svg width="64" height="64" fill="none" xmlns="http://www.w3.org/2000/svg"><g opacity=".78"><path fill-rule="evenodd" clip-rule="evenodd" d="M11.432 58.436l-6.879-8.57A11.506 11.506 0 012 42.66V11.63c0-3.909 3.127-7.152 7.161-7.428l31.903-2.178A10.398 10.398 0 0147.59 3.77l11.208 7.579C60.805 12.704 62 14.922 62 17.288v35.278c0 3.825-3.075 6.993-7.025 7.236l-35.408 2.18c-3.152.193-6.199-1.135-8.135-3.546z" fill="#fff"/><path d="M22.496 27.157v-.406c0-1.03.825-1.884 1.888-1.955l7.743-.517 10.707 15.768V26.208l-2.756-.367v-.193c0-1.042.844-1.902 1.92-1.957l7.045-.36v1.013a.99.99 0 01-.839.965l-1.695.287v22.411l-2.128.732c-1.777.611-3.756-.043-4.774-1.578L29.212 31.474v14.972l3.2.612-.045.297c-.14.93-.942 1.633-1.913 1.676l-7.958.354c-.105-1 .644-1.894 1.678-2.002l1.047-.11V27.31l-2.725-.153z" fill="#000"/><path fill-rule="evenodd" clip-rule="evenodd" d="M41.35 5.934L9.447 8.112c-1.91.13-3.392 1.666-3.392 3.518v31.03c0 1.74.599 3.43 1.702 4.804l6.879 8.57c1.112 1.385 2.862 2.148 4.673 2.036l35.408-2.18c1.815-.111 3.228-1.566 3.228-3.324V17.288a3.3 3.3 0 00-1.471-2.729L45.265 6.981a6.239 6.239 0 00-3.915-1.047zm-30.32 6.18c-.445-.329-.233-1.013.324-1.053l30.21-2.167a4.157 4.157 0 012.698.748l6.062 4.294c.23.163.122.515-.163.53l-31.993 1.74a4.153 4.153 0 01-2.694-.801l-4.445-3.291zm5.637 9.547c0-1.039.84-1.898 1.914-1.956l33.825-1.842c1.047-.057 1.928.748 1.928 1.76V50.17c0 1.038-.837 1.896-1.909 1.957l-33.611 1.912c-1.165.066-2.147-.829-2.147-1.956V21.661z" fill="#000"/></g></svg>
